X:1
T:Title
%%score ( 1 2 ) ( 3 4 5 )
L:1/8
Q:1/4=170
M:2/2
K:E
V:1 treble nm="Grand Piano, Unnamed-000"
V:2 treble 
V:3 bass nm="Choir Pad, Mornington, SM"
V:4 bass 
V:5 bass 
V:1
 [EB]4 [EB]2 [FA]2 | [EG]4 [DF]4 | z4 e4 | z4 .B4 | [EB]4 [EA]4 | [EG]8 | [EA]4 [EA]2 [FA]2 | %7
w: By~Earl~of~Mornington * *|||||||
 [FA]4 [EG]2 [DA]2 | [EB]4 [Ec]4 | [DF]4 [DA]4 | z4 .F4 | [B,E]4 [B,D]4 | [B,E]8- | [B,E]4 z4 |] %14
w: |||||||
V:2
 x8 | x8 | E4 E3- [Ed] | [Ec]4 E2- [Ec]2 | x8 | x8 | x8 | x8 | x8 | x8 | [EG]4 C2- [CE]2 | x8 | %12
 x8 | x8 |] %14
V:3
 [E,G,]4 [G,B,]2 [A,C]2 | B,4 [B,,A,]4 | [E,G,]4 [G,B,]4 | z4 E4 | [G,E]4 [F,B,]4 | [E,B,]8 | %6
 [C,A,]4 [C,C]2 [D,B,]2 | [E,B,]6 [F,B,]2 | B,2 .E6 | B,4 [F,B,]4 | [E,B,]4 [A,,A,]4 | z4 .F,4 | %12
 [E,G,]8- | [E,G,]4 z4 |] %14
V:4
 x8 | x8 | x8 | A,4 G,2 A,2 | x8 | x8 | x8 | x8 | G,4 z2 C2 | x8 | x8 | [B,,G,]4 B,,2- [B,,A,]2 | %12
 x8 | x8 |] %14
V:5
 x8 | x8 | x8 | x8 | x8 | x8 | x8 | x8 | z4 A,4 | x8 | x8 | x8 | x8 | x8 |] %14

